_inc/systems/logos/cps.svg

<?xml version="1.0" encoding="utf-8"?>
<svg viewBox="0 0 1758.6 493" version="1.1" id="svg45" xmlns="http://www.w3.org/2000/svg">
  <g id="g887">
    <path id="rect4789_00000023279678385123697860000008904562164264106648_" class="st0" d="M 206.186 350.241 L 1552.276 350.241 C 1591.716 350.241 1623.69 382.215 1623.69 421.655 C 1623.69 461.095 1591.716 493.022 1552.322 493.022 L 206.186 493.022 C 166.746 493.022 134.819 461.049 134.819 421.655 C 134.864 382.215 166.792 350.241 206.186 350.241 Z M 415.525 454.178 L 433.527 454.178 L 433.527 435.58 L 442.46 435.58 C 458.63 435.58 470.402 427.518 470.402 412.173 L 470.402 411.99 C 470.402 397.56 459.821 389.132 443.376 389.132 L 415.525 389.132 Z M 433.573 421.426 L 433.573 404.248 L 442.002 404.248 C 448.506 404.248 452.4 407.226 452.4 412.814 L 452.4 412.997 C 452.4 418.128 448.506 421.472 442.093 421.472 Z M 505.857 454.178 L 555.374 454.178 L 555.374 438.374 L 523.905 438.374 L 523.905 389.132 L 505.903 389.132 Z M 585.745 454.132 L 604.709 454.132 L 609.335 442.543 L 634.392 442.543 L 639.11 454.132 L 658.441 454.132 L 630.773 388.674 L 613.412 388.674 Z M 614.649 428.526 L 621.978 410.02 L 629.216 428.526 Z M 701.27 454.132 L 719.364 454.132 L 719.364 429.534 L 744.054 389.132 L 723.899 389.132 L 710.432 412.814 L 697.056 389.132 L 676.534 389.132 L 701.225 429.809 Z M 856.511 455.277 C 872.314 455.277 882.804 447.398 882.804 434.114 L 882.804 433.931 C 882.804 421.746 873.505 416.937 858.572 413.684 C 849.594 411.623 847.349 410.34 847.349 407.363 L 847.349 407.18 C 847.349 404.889 849.502 403.011 853.854 403.011 C 859.58 403.011 866.085 405.256 872.04 409.424 L 881.064 396.69 C 874.009 391.01 865.352 388.032 854.312 388.032 C 838.738 388.032 829.164 396.736 829.164 408.829 L 829.164 409.012 C 829.164 422.388 839.837 426.281 853.671 429.442 C 862.466 431.503 864.619 432.969 864.619 435.672 L 864.619 435.855 C 864.619 438.649 862.008 440.298 857.198 440.298 C 849.686 440.298 842.54 437.642 836.127 432.511 L 826.095 444.513 C 834.065 451.659 845.059 455.277 856.511 455.277 Z M 935.437 454.132 L 953.531 454.132 L 953.531 429.534 L 978.221 389.132 L 958.065 389.132 L 944.598 412.814 L 931.222 389.132 L 910.701 389.132 L 935.391 429.809 Z M 1033.876 455.277 C 1049.68 455.277 1060.17 447.398 1060.17 434.114 L 1060.17 433.931 C 1060.17 421.746 1050.871 416.937 1035.938 413.684 C 1026.959 411.623 1024.715 410.34 1024.715 407.363 L 1024.715 407.18 C 1024.715 404.889 1026.868 403.011 1031.22 403.011 C 1036.945 403.011 1043.45 405.256 1049.405 409.424 L 1058.429 396.69 C 1051.375 391.01 1042.717 388.032 1031.678 388.032 C 1016.103 388.032 1006.529 396.736 1006.529 408.829 L 1006.529 409.012 C 1006.529 422.388 1017.203 426.281 1031.036 429.442 C 1039.831 431.503 1041.984 432.969 1041.984 435.672 L 1041.984 435.855 C 1041.984 438.649 1039.373 440.298 1034.563 440.298 C 1027.051 440.298 1019.905 437.642 1013.492 432.511 L 1003.46 444.513 C 1011.477 451.659 1022.425 455.277 1033.876 455.277 Z M 1110.832 454.178 L 1128.835 454.178 L 1128.835 404.935 L 1148.349 404.935 L 1148.349 389.132 L 1091.319 389.132 L 1091.319 404.935 L 1110.832 404.935 Z M 1184.124 454.178 L 1236.894 454.178 L 1236.894 438.833 L 1201.989 438.833 L 1201.989 428.526 L 1233.183 428.526 L 1233.183 414.326 L 1201.989 414.326 L 1201.989 404.477 L 1236.436 404.477 L 1236.436 389.132 L 1184.124 389.132 Z M 1273.998 389.132 L 1273.998 454.132 L 1291.633 454.132 L 1291.633 416.982 L 1308.17 442.268 L 1308.536 442.268 L 1325.164 416.799 L 1325.164 454.132 L 1343.075 454.132 L 1343.075 389.132 L 1324.019 389.132 L 1308.491 414.28 L 1292.962 389.132 Z" style="clip-rule: evenodd; fill-rule: evenodd; stroke-width: 0.458072; fill: rgb(255, 255, 255);"/>
    <path class="st3" d="M 310.901 79.154 L 227.761 167.333 L 172.884 129.542 C 172.884 129.542 190.932 112.227 174.442 99.63 C 161.57 89.827 125.566 110.67 127.077 151.621 C 128.909 198.849 157.997 225.6 190.108 225.6 C 219.883 225.6 227.716 201.46 227.716 201.46 L 294.548 201.46 L 294.548 257.115 L 388.545 8.245 L 495.962 8.245 L 582.217 231.876 C 582.217 231.876 588.493 243.694 594.769 246.855 C 594.769 246.855 595.135 100.134 595.135 96.011 C 595.135 91.889 594.585 87.354 592.02 84.422 C 587.806 79.521 580.66 77.551 580.66 77.551 L 580.66 8.245 C 580.66 8.245 680.199 8.245 731.228 8.245 C 809.284 8.245 829.347 29.545 851.976 70.451 C 883.262 28.171 926.275 0.366 987.657 0.366 C 1050.825 0.366 1095.487 23.728 1121.002 62.572 C 1156.64 19.834 1213.99 0 1266.485 0 C 1330.982 0 1384.851 31.332 1412.748 79.933 L 1412.748 8.245 L 1557.819 8.245 L 1573.119 47.227 L 1584.479 8.245 L 1734.268 8.245 L 1734.268 75.948 C 1723.687 81.078 1719.427 86.3 1721.305 98.393 L 1742.239 232.242 C 1743.109 236.594 1744.621 241.129 1748.377 244.473 C 1752.729 248.366 1758.592 247.633 1758.592 247.633 L 1758.592 324.818 L 1608.024 324.818 L 1608.024 266.506 L 1521.723 266.506 L 1521.723 324.956 L 1380.179 324.956 L 1380.179 286.982 C 1380.179 286.982 1328.462 332.651 1261.767 332.651 C 1176.474 332.651 1119.444 269.667 1119.444 269.667 L 1119.444 324.773 C 1119.444 324.773 1113.169 324.773 1019.035 324.773 C 929.711 324.773 853.03 275.667 831.592 186.206 C 821.423 195.917 776.669 228.028 722.983 240.121 C 718.814 241.037 716.707 242.64 716.707 247.221 C 716.707 255.512 734.389 258.444 734.389 258.444 L 734.389 324.773 C 734.389 324.773 270.133 324.773 183.878 324.773 C 81.911 324.818 0.008 254.733 0.008 165.776 C 0.008 76.818 63.863 1.145 169.724 1.145 C 270.912 1.145 310.901 79.154 310.901 79.154 Z M 168.166 31.194 C 101.792 31.194 28.592 78.101 28.592 162.615 C 28.592 217.721 82.69 294.082 179.939 294.082 L 261.521 294.082 L 261.521 230.41 L 246.634 230.41 C 246.634 230.41 237.427 254.825 194.093 254.825 C 119.611 254.825 96.844 187.076 96.844 150.064 C 96.844 113.052 118.053 68.161 165.876 68.161 C 213.699 68.161 215.256 99.218 215.256 106.73 C 215.256 114.197 210.95 118.136 210.95 119.694 C 210.95 120.289 211.133 120.747 211.454 121.022 L 218.875 127.115 C 221.44 129.222 225.242 128.993 227.532 126.565 L 271.278 80.483 C 271.278 80.483 232.48 31.194 168.166 31.194 Z M 328.583 256.245 C 328.583 256.245 326.613 262.566 320.704 268.476 C 315.345 273.881 308.199 276.354 308.199 276.354 L 308.199 294.861 L 386.987 294.861 L 386.987 276.354 C 386.987 276.354 377.826 275.392 375.215 268.842 C 373.657 264.948 373.657 258.627 375.215 254.688 C 376.772 250.748 393.263 206.636 393.263 206.636 L 473.654 206.636 C 473.654 206.636 490.145 250.382 492.481 255.879 C 494.863 261.375 494.863 265.727 491.702 271.224 C 488.542 276.767 482.266 275.942 482.266 275.942 L 482.266 294.861 L 580.706 294.861 L 580.706 276.354 C 580.706 276.354 571.269 273.194 567.376 268.476 C 563.436 263.757 559.497 258.261 557.161 252.351 L 475.578 38.157 L 408.517 38.157 Z M 431.695 91.706 L 458.355 166.509 L 406.593 166.509 Z M 612.038 58.999 C 612.038 58.999 619.459 63.305 622.619 66.466 C 625.734 69.627 625.368 77.505 625.368 77.505 L 625.368 262.566 C 625.368 262.566 624.589 267.285 620.65 271.224 C 616.71 275.163 611.213 276.354 611.213 276.354 L 611.213 294.861 L 702.186 294.861 L 702.186 275.942 C 702.186 275.942 697.835 274.751 693.941 270.033 C 690.002 265.269 689.635 262.521 689.635 262.521 L 689.635 221.615 C 689.635 221.615 733.793 209.522 767.278 194.039 C 796.32 180.663 830.034 161.791 830.034 108.242 C 830.034 54.693 783.769 38.157 737.504 38.157 C 691.239 38.157 612.038 38.157 612.038 38.157 Z M 764.164 112.181 C 764.164 155.515 690.46 186.206 690.46 186.206 L 690.46 76.772 C 690.46 76.772 764.164 58.633 764.164 112.181 Z M 998.696 31.607 C 932.322 31.607 859.122 78.513 859.122 163.027 C 859.122 218.179 913.22 294.54 1010.469 294.54 L 1092.052 294.54 L 1092.052 230.868 L 1077.164 230.868 C 1077.164 230.868 1067.957 255.283 1024.623 255.283 C 950.141 255.283 927.375 187.534 927.375 150.522 C 927.375 113.51 948.583 68.619 996.406 68.619 C 1044.229 68.619 1045.786 99.676 1045.786 107.188 C 1045.786 114.655 1041.48 118.594 1041.48 120.152 C 1041.48 120.747 1041.664 121.205 1041.984 121.48 L 1049.405 127.573 C 1051.97 129.68 1055.772 129.451 1058.063 127.023 L 1101.808 80.941 C 1101.808 80.941 1062.964 31.652 998.696 31.607 Z M 1406.151 164.585 C 1406.151 88.957 1343.716 30.37 1260.576 30.37 C 1177.436 30.37 1115.001 89.003 1115.001 164.585 C 1115.001 240.167 1175.879 302.281 1260.576 302.281 C 1345.274 302.281 1406.151 240.213 1406.151 164.585 Z M 1260.622 71.276 C 1292.779 71.276 1336.708 94.912 1336.708 165.776 C 1336.708 236.64 1297.451 260.276 1260.622 260.276 C 1223.747 260.276 1185.315 241.358 1185.315 165.776 C 1185.315 90.148 1228.42 71.276 1260.622 71.276 Z M 1443.942 38.34 L 1443.942 56.663 C 1443.942 56.663 1455.028 59.503 1457.089 62.801 C 1459.059 65.916 1457.272 72.833 1457.272 72.833 L 1427.681 257.665 C 1427.681 257.665 1426.902 264.765 1422.184 270.262 C 1417.466 275.759 1411.007 276.767 1411.007 276.767 L 1411.007 294.861 L 1492.177 294.861 L 1492.177 277.958 C 1492.177 277.958 1484.344 277.958 1480.038 271.636 C 1476.924 267.056 1477.702 258.673 1477.702 258.673 L 1498.086 118.503 L 1538.488 237.418 L 1587.869 237.418 L 1628.637 110.624 C 1628.637 110.624 1650.991 253.909 1651.77 260.23 C 1652.594 266.506 1651.403 268.888 1648.655 272.827 C 1645.952 276.767 1637.707 277.958 1637.707 277.958 L 1637.707 294.998 L 1731.428 294.998 L 1731.428 279.149 C 1731.428 279.149 1723.962 275.576 1722.404 271.27 C 1720.847 266.918 1720.022 263.391 1719.244 257.07 C 1718.465 250.794 1693.363 79.933 1692.584 73.612 C 1691.805 67.336 1691.805 64.13 1695.332 59.824 C 1698.264 56.251 1704.769 53.502 1704.769 53.502 L 1704.769 38.157 L 1607.153 38.157 L 1571.103 142.918 L 1537.389 38.34 Z" id="path41" style="stroke-width: 0.458072; fill: rgb(255, 255, 255);"/>
  </g>
</svg>

<svg xmlns="http://www.w3.org/2000/svg" viewBox="0 0 1758.6 493"><path d="M206.19 350.24h1346.09a71.4 71.4 0 0 1 71.41 71.41 71.37 71.37 0 0 1-71.37 71.37H206.2a71.36 71.36 0 0 1-71.37-71.37c.04-39.43 31.97-71.4 71.37-71.4m209.33 103.94h18v-18.6h8.94c16.17 0 27.94-8.06 27.94-23.4V412c0-14.43-10.58-22.86-27.02-22.86h-27.86Zm18.05-32.75v-17.18H442c6.5 0 10.4 2.98 10.4 8.56v.19c0 5.13-3.9 8.47-10.3 8.47Zm72.29 32.75h49.51v-15.8H523.9v-49.25h-18Zm79.88-.05h18.97l4.63-11.59h25.05l4.72 11.6h19.33l-27.67-65.47h-17.36Zm28.9-25.6 7.34-18.51 7.24 18.5Zm86.63 25.6h18.1v-24.6l24.68-40.4H723.9l-13.47 23.68-13.37-23.68h-20.53l24.7 40.68Zm155.24 1.15c15.8 0 26.3-7.88 26.3-21.17v-.18c0-12.18-9.3-17-24.24-20.25-8.98-2.06-11.22-3.34-11.22-6.32v-.18c0-2.3 2.15-4.17 6.5-4.17 5.73 0 12.24 2.25 18.19 6.41l9.02-12.73c-7.05-5.68-15.7-8.66-26.75-8.66-15.57 0-25.15 8.7-25.15 20.8v.18c0 13.38 10.68 17.27 24.51 20.43 8.8 2.06 10.95 3.53 10.95 6.23v.19c0 2.79-2.61 4.44-7.42 4.44-7.51 0-14.66-2.66-21.07-7.79l-10.03 12c7.97 7.15 18.96 10.77 30.41 10.77m78.93-1.15h18.1v-24.6l24.68-40.4h-20.15l-13.47 23.68-13.38-23.68H910.7l24.7 40.68Zm98.44 1.15c15.8 0 26.29-7.88 26.29-21.17v-.18c0-12.18-9.3-17-24.23-20.25-8.98-2.06-11.23-3.34-11.23-6.32v-.18c0-2.3 2.16-4.17 6.51-4.17 5.72 0 12.23 2.25 18.18 6.41l9.03-12.73c-7.06-5.68-15.71-8.66-26.75-8.66-15.58 0-25.15 8.7-25.15 20.8v.18c0 13.38 10.67 17.27 24.5 20.43 8.8 2.06 10.95 3.53 10.95 6.23v.19c0 2.79-2.6 4.44-7.42 4.44-7.5 0-14.65-2.66-21.07-7.79l-10.03 12c8.02 7.15 18.96 10.77 30.42 10.77m76.95-1.1h18v-49.24h19.52v-15.8h-57.03v15.8h19.51Zm73.3 0h52.76v-15.35H1202v-10.3h31.2v-14.2H1202v-9.85h34.45v-15.35h-52.32Zm89.87-65.05v65h17.63v-37.15l16.54 25.29h.37l16.62-25.47v37.33h17.91v-65h-19.05l-15.53 25.15-15.53-25.15Z" class="st0" style="clip-rule:evenodd;fill-rule:evenodd;stroke-width:.458072;fill:#fff"/><path d="m310.9 79.15-83.14 88.18-54.88-37.79s18.05-17.31 1.56-29.91c-12.87-9.8-48.87 11.04-47.36 52 1.83 47.22 30.92 73.97 63.03 73.97 29.77 0 37.6-24.14 37.6-24.14h66.84v55.66l94-248.87h107.41l86.26 223.63s6.27 11.81 12.55 14.97c0 0 .37-146.72.37-150.84s-.55-8.66-3.12-11.59c-4.21-4.9-11.36-6.87-11.36-6.87V8.25h150.57c78.05 0 98.12 21.3 120.75 62.2C883.26 28.17 926.28.37 987.66.37c63.17 0 107.83 23.36 133.34 62.2C1156.64 19.83 1214 0 1266.48 0c64.5 0 118.37 31.33 146.27 79.93V8.25h145.07l15.3 38.98 11.36-38.98h149.79v67.7c-10.58 5.13-14.84 10.35-12.96 22.44l20.93 133.85c.87 4.35 2.38 8.89 6.14 12.23 4.35 3.9 10.21 3.16 10.21 3.16v77.19h-150.57V266.5h-86.3v58.45h-141.54v-37.98s-51.72 45.67-118.41 45.67c-85.3 0-142.33-62.98-142.33-62.98v55.1h-100.4c-89.33 0-166.01-49.1-187.45-138.56-10.17 9.7-54.92 41.82-108.6 53.91-4.18.92-6.28 2.52-6.28 7.1 0 8.3 17.68 11.22 17.68 11.22v66.33H183.88C81.9 324.82 0 254.73 0 165.77S63.86 1.16 169.72 1.16c101.2 0 141.18 78 141.18 78M168.17 31.2c-66.38 0-139.58 46.91-139.58 131.42 0 55.11 54.1 131.47 151.35 131.47h81.58v-63.67h-14.89s-9.2 24.41-52.54 24.41c-74.48 0-97.25-67.74-97.25-104.76 0-37 21.21-81.9 69.04-81.9 47.82 0 49.38 31.06 49.38 38.57 0 7.47-4.31 11.4-4.31 12.96q.01.91.5 1.33l7.43 6.1a6.37 6.37 0 0 0 8.65-.56l43.75-46.08S232.48 31.2 168.17 31.2m160.41 225.05s-1.97 6.33-7.88 12.24c-5.35 5.4-12.5 7.87-12.5 7.87v18.51h78.79v-18.5s-9.16-.97-11.78-7.52c-1.55-3.9-1.55-10.21 0-14.15 1.56-3.94 18.05-48.05 18.05-48.05h80.4s16.48 43.74 18.82 49.24c2.38 5.5 2.38 9.85-.78 15.34-3.16 5.55-9.43 4.72-9.43 4.72v18.92h98.44v-18.5s-9.44-3.17-13.33-7.88c-3.94-4.72-7.88-10.22-10.22-16.13l-81.58-214.2h-67.06ZM431.7 91.72l26.66 74.8h-51.77ZM612.04 59s7.42 4.3 10.58 7.47c3.11 3.16 2.75 11.03 2.75 11.03v185.07s-.78 4.72-4.72 8.65-9.44 5.13-9.44 5.13v18.51h90.98v-18.92s-4.36-1.19-8.25-5.9c-3.94-4.77-4.3-7.52-4.3-7.52v-40.9s44.15-12.1 77.64-27.58c29.04-13.38 62.75-32.25 62.75-85.8s-46.26-70.08-92.53-70.08H612.04Zm152.12 53.18c0 43.33-73.7 74.03-73.7 74.03V76.77s73.7-18.14 73.7 35.41M998.7 31.61c-66.38 0-139.58 46.9-139.58 131.42 0 55.15 54.1 131.51 151.35 131.51h81.58v-63.67h-14.89s-9.2 24.41-52.54 24.41c-74.48 0-97.24-67.75-97.24-104.76s21.2-81.9 69.03-81.9 49.38 31.06 49.38 38.57c0 7.47-4.31 11.4-4.31 12.96q.01.9.5 1.33l7.42 6.1a6.37 6.37 0 0 0 8.66-.56l43.75-46.08s-38.85-49.29-103.11-49.33m407.45 132.98c0-75.63-62.43-134.22-145.57-134.22S1115 89 1115 164.59c0 75.58 60.88 137.7 145.58 137.7s145.57-62.08 145.57-137.7m-145.53-93.31c32.16 0 76.09 23.63 76.09 94.5 0 70.86-39.26 94.5-76.09 94.5-36.87 0-75.3-18.92-75.3-94.5 0-75.63 43.1-94.5 75.3-94.5m183.32-32.94v18.32s11.09 2.84 13.15 6.14c1.97 3.12.18 10.03.18 10.03l-29.59 184.84s-.78 7.1-5.5 12.6-11.17 6.5-11.17 6.5v18.1h81.17v-16.91s-7.84 0-12.14-6.32c-3.12-4.58-2.34-12.97-2.34-12.97l20.39-140.17 40.4 118.92h49.38l40.77-126.8s22.35 143.29 23.13 149.61c.82 6.28-.37 8.66-3.12 12.6-2.7 3.94-10.94 5.13-10.94 5.13V295h93.72v-15.85s-7.47-3.57-9.03-7.88c-1.55-4.35-2.38-7.88-3.16-14.2-.78-6.28-25.88-177.14-26.66-183.46-.77-6.27-.77-9.48 2.75-13.79 2.93-3.57 9.44-6.32 9.44-6.32V38.16h-97.62l-36.05 104.76-33.71-104.58Z" class="st3" style="stroke-width:.458072;fill:#fff"/></svg>
